X:1
T:Noi siamo zingarelle
T:Guiseppe Verdi (1813-1901)
T:Noi siamo zingarelle
T:from La traviata
T:©
T:©
T:©
T:©
T:©
T:©
T:©
T:©
T:©
T:©
T:©
T:©
T:©
T:©
T:©
T:©
T:©
T:©
T:©
T:©
Z:©
%%score [ 1 2 ] { ( 3 5 ) | 4 }
L:1/8
Q:1/4=120
M:4/4
K:G
V:1 treble nm="Soprano" snm="S"
V:2 treble nm="Alto" snm="A"
V:3 treble nm="Piano" snm="Pno."
V:5 treble 
V:4 bass 
V:1
"^Allegro moderato." z4 z2 z3/2 B/ | BzG z BzG z | E6 E>E | FzG z AzF z | EzE z z2 z3/2 B/ | %5
w: Noi|sia- mo- zin- ga-|rel- le ve-|nu- te da lon-|ta- no d'o-|
 BzG z BzG z | E6 E>E | FzG z AzF z | E2 z2 z2 (3(.e.f.e) | dz/d/ cz/c/ Bz/B/ Az/A/ | %10
w: gnu- no sul- la|ma- no leg-|gia- mo l'av- ve-|nir Se * *|con- sul- tiam le stel- le, con- sul-|
 Gz/D/ G z G z (3(.e.f.e) | dz/d/ cz/c/ Bz/B/ Az/A/ | Gz/D/ Gz/D/ B7/2 B/ | BzG z BzG z | E6 E>E | %15
w: tiam le stel- le nul- * *|l'av- vi\_a noi d'o- scu- ro, no, nul-|l'av- vi\_a noi d'o scu- ro.\_e\_i|ca- si del fu-|tu- ro pos-|
 FzG z AzF z ||[K:E] E z (3(!>!.e.f.e) dz/d/ fz/f/ | B z !>!ez/e/ (3AGA !>!Bz/A/ | %18
w: sia- mo\_al- trui pre-|dir Se * * con- sul- tiam le|stel- le nul l'av- * vi\_a noi d'o-|
 G z (3(!>!.e.f.e) dz/d/ !>!fz/f/ | B z !>!ez/e/ (3AGA Bz/A/ | %20
w: scur, e * i ca- si del fu-|tu- ro pos- sia- * mo\_al- trui pre-|
!pp!!<(! G z (3(FGA) (3(BG)E (3(FG)A | (3B-BB (3(^AB)c (3(dB)G (3(AB)c!<)! | %22
w: dir, e\_i * * ca- * si del * fu-|tu- * ro, e * i ca- * si del * fu-|
 d z!<(! (3(Bc)B (3(Bc)B (3(Bc)!<)!B | B2 (3(.g.f.e) dzc z | B z (3(.e.d.c) BzA z | %25
w: tur e * i ca- * si del * fu-|tu ro * pos- sia- mo\_al-|trui pos- sia- mo\_al- trui pre-|
 G!pp! z!<(! (3(FG)A (3(BG)E (3(FG)A!<)! | (3B-BB (3(^AB)c (3(dB)G (3(AB)c | %27
w: dir e * i ca- * si del * fu-|tu- * ro, e * i ca- * si del * fu-|
 d z!<(! (3(Bc)B (3(Bc)B (3(Bc)!<)!B | B2 (3(.g.f.e) dzc z | B z (3(.e.d.c) BzA z | G2 z2 z4 | %31
w: tur, e * i ca- * si del * fu-|tu- ro * pos- sia- mo\_al-|trui, pos- sia- mo\_al- trui pre-|dir|
 z4 z2 z3/2 A/ | czA z z4 | z8 | z8 | z4 z2 B>B | (=d2 c2) BzA z | (G3 B) (F3 B) | G z E2 z4 | z8 | %40
w: Ve-|dia- mo|||Voi, si-|gno- * ra, ri-|va- li\_al- quan- te\_a-|ve- te.||
 z8 | z8 | z4 z2 z F | (A2 G2 =d2 c2 | B2 A2 G)zF z | (E3 G) (D3 G) | C2 z G dGGG | eczc dGGG | %48
w: ||Mar-|che- se, voi non|sie- * te mo-|del di fe- del-|ta. Fa- te\_il- ga- lan- te\_an|co- ra? ben, vo' me la pa-|
 G2 c z z4 | z8 | z2 z .B .=c.A.F.D | (B/A/=G/F/) .E.B .=c.A.F.D | (B/A/=G/F/) .E.B .=c.A.F.D | %53
w: ghia- te.||La vol- pe la- scia\_il|pe- * * * lo,- non ab- ban- do- na\_il|vi- * * * zio. Mar- che- se mio giu-|
 (B/A/=G/F/) .E.B .=c.A.F.D | .E.e.d.e =d2 =c2 | B.=c.B.c =G2 A2 | B.e.d.e =d2 =c2 | %57
w: di- * * * zio, o vi fa- ro pen-|tir, Mar- che- se mio, giu-|di- zio\_o vi fa- ro pen-|tir, Mar- che- se mio giu-|
 .B.=c.B.c =G2 A2 | B6 z3/2 B/ | Bz=G z BzG z | E6 E>E | Fz=G z AzF z | EzE z z2 z3/2 B/ | %63
w: di- zio\_o vi fa- ro pen-|tir Su|via, si sten- da\_un|ve- lo sui|fat- ti del pas-|sa- to; gia|
 Bz=G z BzG z | E6 E>E | Fz=G z AzF z | E z (3(.e.f.e) dz/d/ !>!fz/f/ | %67
w: quel che sta- to\_e|sta- to, ba-|da- te\_al- l'av- ve-|nir Su- * * via, si sten- da\_un|
 B z !>!ez/e/ (3(.A.G).A !>!Bz/A/ | G z (3(.e.f).e dz/d/ !>!fz/f/ | B z ez/e/ (3AGA Bz/A/ | %70
w: ve- lo sui fat- * ti del pas-|sa- to; * gia quel che sta- to\_e-|sta- to, ba- da- * te\_al- l'av- ve-|
 G!pp! z!<(! (3(FGA) (3(BG)E (3(FG)!<)!A | (3B-BB (3(^ABc) (3(dB)G (3(AB)c | %72
w: nir, gia * * quel * che sta- * to\_e|sta- * to, ba- * * da- * te\_al- l'av- * ve-|
 d z!<(! (3(BcB) (3(Bc)B (3(Bc)B!<)! | B2 (3(.g.f.e) dzc z | B z (3(.e.d.c) BzA z | %75
w: nir, ba- * * da- * te\_al- l'av- * ve|nir, ba- * * da *|te, ba- da- te\_al- l'av- ve-|
 G z!pp!!<(! (3FGA (3BGE (3FGA | (3B-BB (3^ABc (3dBG (3AB!<)!c | d z!<(! (3BcB (3BcB (3BcB!<)! | %78
w: nir, gia * * quel * che sta- * to\_e|sta- * to, ba- * * da- * te\_al- l'av- * ve-|nir, ba- * * da- * te\_al- l'av- * ve-|
 B2 (3(.g.f.e) (dzc) z | B z (3.e.d.c BzA z | G>!f!B [Ac]>[AB] [Gc]>[GB] [Ac]>[AB] | %81
w: nir, ba- * * da- *|te, ba- da- te\_al- l'av- ve-|nir Ah! Si ba- da- te\_al l'a- ve-|
 ([Gc]>[GB]) [Ac]>([AB] [Gc]>)[GB] ([Ac]>[AB]) | [Be]8- | [Be]2 z2 z4 |] %84
w: nir, si, si, ba- da- te\_al * l'av-|ve-|nir.|
V:2
 z4 z2 z3/2 B/ | BzG z BzG z | E6 E>E | FzG z AzF z | EzE z z2 z3/2 B/ | BzG z BzG z | E6 E>E | %7
w: Noi|sia- mo- zin- ga-|rel- le ve-|nu- te da lon-|ta- no d'o-|gnu- no sul- la|ma- no leg-|
 FzG z AzF z | E2 z2 z2 (3(.G.A.G) | Fz/F/ Ez/E/ Dz/D/ Cz/C/ | B,z/D/ B,z/D/ B, z (3(.G.A.G) | %11
w: gia- mo l'av- ve-|nir Se * *|con- sul- tiam le stel- le, con- sul-|tiam le stel- * le nul- * *|
 Fz/F/ Ez/E/ Dz/D/ Cz/C/ | B,z/D/ B,z/D/ B,7/2 B/ | BzG z BzG z | E6 E>E | FzG z AzF z || %16
w: l'av- vi\_a noi d'o- scu- ro, no, nul-|l'av- vi\_a noi d'o scu- ro.\_e\_i|ca- si del fu-|tu- ro pos-|sia- mo\_al- trui pre-|
[K:E] E z (3(!>!.G.A.G) Bz/B/ Az/A/ | G z !>!Gz/G/ (3F^EF !>!Gz/F/ | %18
w: dir Se * * con- sul- tiam le|stel- le nul l'av- * vi\_a noi d'o-|
 E z (3(!>!.G.A.G) Bz/B/ !>!Az/A/ | G z !>!Gz/G/ (3F^EF Gz/F/ | E z (3(FGA) (3(BG)E (3(FG)A | %21
w: scur, e * i ca- si del fu-|tu- ro pos- sia- * mo\_al- trui pre-|dir, e\_i * * ca- * si del * fu-|
 (3B-BB (3(^AB)c (3(dB)G (3(AB)c | d z (3(Bc)B (3(Bc)B (3(Bc)B | B2 (3(.e.d.c) BzA z | %24
w: tu- * ro, e * i ca- * si del * fu-|tur e * i ca- * si del * fu-|tu ro * pos- sia- mo\_al-|
 G z (3(.c.B.A) GzF z | E z (3(FG)A (3(BG)E (3(FG)A | (3B-BB (3(^AB)c (3(dB)G (3(AB)c | %27
w: trui, pos- sia- mo\_al- trui pre-|dir e * i ca- * si del * fu-|tu- * ro, e * i ca- * si del * fu-|
 d z (3(Bc)B (3(Bc)B (3(Bc)B | B2 (3(.e.d.c) BzA z | G z (3(.c.B.A) GzF z | E2 z2 z4 | %31
w: tur, e * i ca- * si del * fu-|tu- ro * pos- sia- mo\_al-|trui, pos- sia- mo\_al- trui pre-|dir|
 z4 z2 z3/2 A/ | czA z z4 | z8 | z8 | z4 z2 B>B | (=d2 c2) BzA z | (G3 B) (F3 B) | G z E2 z4 | z8 | %40
w: Ve-|dia- mo|||Voi, si-|gno- * ra, ri-|va- li\_al- quan- te\_a-|ve- te.||
 z8 | z8 | z4 z2 z F | (A2 G2 =d2 c2 | B2 A2 G)zF z | (E3 G) (D3 G) | C2 z2 z4 | z8 | %48
w: ||Mar-|che- se, voi non|sie- * te mo-|del di fe- del-|ta.||
 z2 z G, G,G,G,G, | (G,2 C)C CF,F,F, | B,2 z .B .=c.A.F.D | (B/A/=G/F/) .E.B .=c.A.F.D | %52
w: Che dia- cin vi pen-|sa- te? l'ac- cu- sa\_e fal- si-|ta. La vol- pe la- scia\_il|pe- * * * lo,- non ab- ban- do- na\_il|
 (B/A/=G/F/) .E.B .=c.A.F.D | (B/A/=G/F/) .E.B .=c.A.F.D | .E.e.d.e =d2 =c2 | B.=c.B.c =G2 A2 | %56
w: vi- * * * zio. Mar- che- se mio giu-|di- * * * zio, o vi fa- ro pen-|tir, Mar- che- se mio, giu-|di- zio\_o vi fa- ro pen-|
 B.e.d.e =d2 =c2 | .B.=c.B.c =G2 A2 | B6 z3/2 B/ | Bz=G z BzG z | E6 E>E | Fz=G z AzF z | %62
w: tir, Mar- che- se mio giu-|di- zio\_o vi fa- ro pen-|tir Su|via, si sten- da\_un|ve- lo sui|fat- ti del pas-|
 EzE z z2 z3/2 B/ | Bz=G z BzG z | E6 E>E | Fz=G z AzF z | E z (3(.G.A.G) Bz/B/ !>!Az/A/ | %67
w: sa- to; gia|quel che sta- to\_e|sta- to, ba-|da- te\_al- l'av- ve-|nir Su- * * via, si sten- da\_un|
 G z !>!Gz/G/ (3(.F.^E).F !>!Gz/F/ | E z (3(.G.A).G Bz/B/ !>!Az/A/ | G z Gz/G/ (3F^EF Gz/F/ | %70
w: ve- lo sui fat- * ti del pas-|sa- to; * gia quel che sta- to\_e|sta- to, ba- da- * te\_al- l'av- ve-|
 E z (3(FGA) (3(BG)E (3(FG)A | (3B-BB (3(^ABc) (3(dB)G (3(AB)c | d z (3(BcB) (3(Bc)B (3(Bc)B | %73
w: nir gia * * quel * che sta- * to\_e|sta- * to, ba- * * da- * te\_al- l'av- * ve-|nir, ba- * * da- * te\_al- l'av- * ve-|
 B2 (3(.e.d.c) B z A z | G z (3(.c.B.A) G z F z | G z (3FGA (3BGE (3FGA | %76
w: nir, ba- * * da- *|te, ba- da- te\_al- l'av- ve-|nir, gia * * quel * che sta- * to\_e|
 (3B-BB (3^ABc (3dBG (3ABc | d z (3BcB (3BcB (3BcB | B2 (3(.e.d.c) (B z A) z | G z (3.c.B.A GzF z | %80
w: sta- * to, ba- * * da- * te\_al- l'av- * ve-|nir ba- * * da- * te\_al- l'av- * ve-|nir, ba- * * da- *|te,- ba- da- te\_al- l'av- ve-|
 Ez/B/ D>D E>E D>D | (E>E) D>(D E>)E D>D | G8- | G2 z2 z4 |] %84
w: nir Ah! Si ba- da- te\_al l'a- ve-|nir, si, si, ba- da- te\_al- * l'av-|ve-|nir.|
V:3
!pp!"^leggero" z8 | [Bb]z[Gg] z [Bb]z[Gg] z | [Ee]6 (3.[Ee].[Ff].[Gg] | %3
 (3.[Ff].[Gg].[Aa] (3.[Gg].[Aa].[Bb] [Aa]z[Ff] z | [Ee]z!>!.[EGBe] z !>!.[EGBe] z z2 | %5
 [Bb]z[Gg] z [Bb]z[Gg] z | [Ee]6 (3[Ee][Ff][Gg] | (3[Ff][Gg][Aa] (3[Gg][Aa][Bb] [Aa]z[Ff] z | %8
 [Ee]z[EGBe] z [EGBe] z (3.[ge'].[af'].[ge'] | %9
 [fd']z/[fd']/ [ec']z/[ec']/ [db]z/[db]/ [ca]z/[ca]/ | %10
 [Bg]z/d/ !>![Bg]z/d/ !>![Bg] z (3.[ge'].[af'].[ge'] | %11
 [fd']z/[fd']/ [ec']z/[ec']/ [db]z/[db]/ [ca]z/[ca]/ | [Bg]z/d/ !>![Bg]z/d/ !>![Bb]4 | %13
 [Bb]z[Gg] z [Bb]z[Gg] z | [Ee]6 (3[Ee][Ff][Gg] | (3[Ff][Gg][Aa] (3[Gg][Aa][Bb] [Aa]z[Ff] z || %16
[K:E] [Ee] z (3.[ge'].[af'].[ge'] [bd']z/[bd']/ [af']z/[af']/ | %17
 [gb] z [ge']z/[ge']/ (3[fa][^eg][fa] [gb]z/[fa]/ | %18
 [eg] z (3.[ge'].[af'].[ge'] [bd']z/[bd']/ [af']z/[af']/ | %19
 [gb] z [ge']z/[ge']/ (3[fa][^eg][fa] [gb]z/[fa]/ |!pp!!<(! [eg] z (3(FGA) (3(BGE) (3(FGA) | %21
 (3(BGE) (3(^ABc) (3(dBG) (3(AB!<)!c) | (3(dBG)!<(! (3(bc'b) (3(bc'b) (3(bc'!<)!b) | %23
 b2 (3(.[e'g'].[d'f'].[c'e']) [bd']z[ac'] z | [gb] z (3(.[c'e'].[bd'].[ac']) [gb]z[fa] z | %25
"^simile" [eg] z!<(! (3FGA (3BGE (3FGA!<)! | (3BGF (3^ABc (3dBG (3ABc | %27
 (3dBG!<(! (3bc'b (3bc'b (3bc'!<)!b | b2 (3[e'g'][d'f'][c'e'] [bd']z[ac'] z | %29
 [gb] z (3[c'e'][bd'][ac'] [gb]z[fa] z | [eg]!f!z!>![egbe'] z !>!E2 z2 |!p! (f2 e) z (f2 e) z | %32
 fze z !>![Aa]2 z2 | (=d2 c) z (d2 c) z | ez=d z !>![Ff]2 z2 |!<(! (a2 g) z (c'2 b) z!<)! | %36
!>(! (=d'2 c') z bza z!>)! | (g/a/g/^^f/) .g.b (^f/g/f/^e/) .f.b | z4!<(! !>![GB=d]4!<)! | %39
 (!~(!!>!!~)![Acf]2 e) z (!>!f2 e) z | fze z !>![Aa]2 z2 | (!>!=d2 c) z (!>!d2 c) z | %42
 ez=d z !>![Ff]2 z2 | (([cc']2 [Bb])) z [=d=d']z[cc'] z | (([Bb]2 [Aa])) z [Gg]z[Ff] z | %45
 (e/f/e/d/) .e.g (d/e/d/^^c/) .d.g |!pp! c(a/g/) (^^f/g/a/g/) .d(a/g/) (f/g/a/g/) | %47
 .ea/g/ ^^f/g/a/g/ .d.e.^f.g | .ca/g/ ^^f/g/a/g/ .da/g/ f/g/a/g/ | .ea/g/ ^^f/g/a/g/ .c.d.e.^f | %50
 B2 z .b .=c'.a.f.d | b/a/=g/f/ eb =c'afd | b/a/=g/f/ eb =c'afd | b/a/=g/f/ eb =c'afd | %54
 eede =d2 =c2 | B=cBc =G2 A2 | Bede =d2 =c2 | B=cBc =G2 A2 | B8 | %59
"^sim." [Bb]z[=G=g] z [Bb]z[Gg] z | [Ee]6 (3[Ee][Ff][=G=g] | %61
 (3[Ff][=G=g][Aa] (3[Gg][Aa][Bb] [Aa]z[Ff] z | [Ee]z[E=GBe] z [EGBe] z z2 | %63
 [Bb]z[=G=g] z [Bb]z[Bb] z | [Ee]6 (3[Ee][Ff][=G=g] | (3[Ff][=G=g][Aa] (3[Gg][Aa][Bb] [Aa]z[Ff] z | %66
"^sim." [Ee] z (3[ge'][af'][ge'] [bd']z/[bd']/ [af']z/[af']/ | %67
 [gb] z [ge']z/[ge']/ (3[fa][^eg][fa] [gb]z/[fa]/ | %68
 [eg] z (3[ge'][af'][ge'] [bd']z/[bd']/ [af']z/[af']/ | %69
 [gb] z [ge']z/[ge']/ (3[fa][^eg][fa] [gb]z/[fa]/ | [eg]!pp! z!<(! (3(FGA) (3(BGE) (3(FGA)!<)! | %71
 (3(BGE) (3(^ABc) (3(dBG) (3(ABc) | %72
 (3(dBG)!<(! (3([Bb][cc'][Bb]) (3([Bb][cc'][Bb]) (3([Bb][cc']!<)![Bb]) | %73
 [Bb]2 (3(.[e'g'].[d'f'].[c'e']) [bd']z[ac'] z | [gb] z (3(.[c'e'].[bd'].[ac']) [gb]z[fa] z | %75
 [eg] z!<(! (3(FGA) (3(BGE) (3(FGA) | (3(BGE) (3(^ABc) (3(dBG) (3(AB!<)!c) | %77
 (3(dBG) (3([Bb][cc'][Bb]) (3([Bb][cc'][Bb]) (3([Bb][cc'][Bb]) | %78
 [Bb]2 (3(.[e'g'].[d'f'].[c'e']) [bd']z[ac'] z | [gb] z (3.[c'e'].[bd'].[ac'] [gb]z[fa] z | %80
 (3[eg]([cc']!f![Bb]) (3z ([cc'][Bb]) (3z ([cc'][Bb]) (3z ([cc'][Bb]) | %81
 (3z ([cc'][Bb]) (3z ([cc'][Bb]) (3z ([cc'][Bb]) (3z ([cc'][Bb]) | %82
 (3.[egbe'].[egbe'].[egbe'] (3.[egbe'].[egbe'].[egbe'] (3.[egbe'].[egbe'].[egbe'] (3.[egbe'].[egbe'].[egbe'] | %83
 [egbe']z[egbe'] z E2 z2 |] %84
V:4
 E,z[G,B,E] z E, z [G,B,E] z | E,z[G,B,E] z E, z [G,B,E] z | E,z[G,B,] z E,z[G,B,] z | %3
 B,,z[F,B,^D] z B,, z [F,B,D] z | E,z!>![E,,B,,E,] z !>![E,,B,,E,]z[G,B,E] z | %5
"^simile" E,z[G,B,E] z E,z[G,B,E] z | E,z[G,B,] z E, z [G,B,] z | B,,z[F,B,^D] z B,, z [F,B,D] z | %8
 E,z[E,,B,,E,] z [E,,B,,E,]z[G,B,E] z | D,z[A,CDF] z D, z [A,CDF] z | %10
 G,z!>![G,,D,G,] z !>![G,,D,G,]z[B,DG] z | D,z[A,CDF] z D,z[A,CDF] z | %12
 G,z!>![G,,D,G,] z [B,,^D,F,B,] z [B,^DF] z |"^simile" E,z[G,B,E] z E,z[G,B,E] z | %14
 E,z[G,B,] z E, z [G,B,] z | B,,z[F,B,^D] z B,, z [F,B,D] z || %16
[K:E] E,z!>![G,B,E] z B,,z!>![F,A,B,D] z | B,,z!>![G,B,E] z B,,z!>![A,B,D] z | %18
 E,z!>![G,B,E] z B,,z!>![F,A,B,D] z | B,,z!>![G,B,E] z B,,z!>![A,B,D] z | %20
 [E,G,B,E] z (3(F,G,A,) (3(B,G,E,) (3(F,G,A,) | (3(B,G,E,) (3(^A,B,C) (3(DB,G,) (3(A,B,C) | %22
 (3(DB,G,) [A,B,DF] z [G,B,E]z[F,A,B,D] z | E,z[B,EG] z A,,z[A,CF] z | %24
 B,,z[G,B,E] z B,,z[F,A,B,D] z | [E,G,B,E]!pp! z (3F,G,A, (3B,G,E, (3F,G,A, | %26
 (3B,G,E, (3^A,B,C (3DB,G, (3A,B,C | (3DB,G, [A,B,DF] z [G,B,E]z[F,A,B,D] z | %28
 E,z[B,EG] z A,,z[A,CF] z | B,,z[G,B,E] z B,,z[F,A,B,D] z | %30
 [E,G,B,E]z!>![E,G,B,E] z !>![E,,E,]2 z2 | A,,z[A,CE] z A,,z[A,CE] z | %32
 A,,z[A,CE] z A,, z [A,CE] z | F,z[A,CF] z F, z [A,CF] z | B,,z[B,=DF] z B,,z[B,DF] z | %35
 E,z[B,EG] z ^E, z [B,=DG] z | F,z[A,CF] z A,, z [A,CF] z | B,,z[G,B,E] z B,,[A,B,D]zE, | %38
 E,z[G,B,E] z E, z [B,=DE] z | A,,z[A,CE] z A,,z[A,CE] z | A,,z[A,CE] z A,, z [A,CE] z | %41
 F,z[A,CF] z F,z[A,CF] z | B,,z[B,=DF] z B,,z[B,DF] z | E,z[B,=D] z ^E,z[B,CG] z | %44
 F,z[A,CF] z F, z [A,C] z | G,z[CE] z G,, z [G,^B,F] z | %46
"^legg." C,[G,CE][G,CE][G,CE] G,,[G,^B,F][G,B,F][G,B,F] | %47
 G,,[G,CE][G,CE][G,CE] G,,[G,^B,D]G,,[G,B,D] | C,[G,CE][G,CE][G,CE] G,,[G,^B,F][G,B,F][G,B,F] | %49
 C,[G,CE][G,CE][G,CE] F,[^A,CE]F,,[F,A,C] | B,,[F,B,D]B,,[F,B,D] B,,[A,B,D]B,,[A,B,D] | %51
 B,,[=G,B,E]B,,[G,B,E] B,,[A,B,D]B,,[A,B,D] | B,,[=G,B,E]B,,[G,B,E] B,,[A,B,D]B,,[A,B,D] | %53
 B,,[=G,B,E]B,,[G,B,E] B,,[A,B,D]B,,[A,B,D] | [E,=G,B,E]EDE =D2 =C2 | B,=CB,C =G,2 A,2 | %56
 B,EDE =D2 =C2 | B,=CB,C =G,2 A,2 | B,8 |"^legg." E,z[=G,B,E] z E,z[G,B,E] z | %60
 E,z[=G,B,] z E,z[G,B,] z | B,,z[F,B,D] z B,,z[F,B,D] z | E,z[E,,B,,E,] z [E,,B,,E,]z[=G,B,E] z | %63
 E,z[=G,B,E] z E,z[G,B,E] z | E,z[=G,B,] z E,z[G,B,] z | B,,z[F,B,D] z B,,z[F,B,D] z | %66
 E,z[G,B,E] z B,,z[F,A,B,D] z | B,,z[G,B,E] z B,,z[F,A,B,D] z | E,z[G,B,E] z B,,z[F,A,B,D] z | %69
 B,,z[G,B,E] z B,,z[F,A,B,D] z | [E,G,B,E] z (3(F,G,A,) (3(B,G,E,) (3(F,G,A,) | %71
 (3(B,G,E,) (3(^A,B,C) (3(DB,G,) (3(A,B,C) | (3(DB,A,) [A,B,DF] z [G,B,E]z[F,A,B,D] z | %73
 E,z[B,EG] z A,,z[A,CF] z | B,,z[G,B,E] z B,,z[F,A,B,D] z | %75
 [E,G,B,E] z!pp! (3(F,G,A,) (3(B,G,E,) (3(F,G,A,) | (3(B,G,E,) (3(^A,B,C) (3(DB,G,) (3(A,B,C) | %77
 (3DB,!<(!G, [A,B,DF] z [G,B,E]z[F,A,B,D] z!<)! | E,z[B,EG] z A,,z[A,CF] z | %79
 B,,z[G,B,E] z B,,z[F,A,B,D] z | [E,G,B,E]z[B,,D,F,B,] z [E,G,B,]z[B,,D,F,B,] z | %81
 [E,G,B,]z[B,,D,F,B,] z [E,G,B,]z[B,,D,F,B,] z | (3E,,G,,B,, (3E,B,,G,, (3E,,G,,B,, (3E,B,,G,, | %83
 E,,z[E,G,B,E] z [E,,E,]2 z2 |] %84
V:5
 x8 | x8 | x8 | x8 | x8 | x8 | x8 | x8 | x8 | x8 | x8 | x8 | x8 | x8 | x8 | x8 ||[K:E] x8 | x8 | %18
 x8 | x8 | x8 | x8 | x8 | x8 | x8 | x8 | x8 | x8 | x8 | x8 | x8 | x8 | x8 | x8 | x8 | x8 | x8 | %37
 x8 | e8 | x8 | x8 | x8 | x8 | x8 | x8 | x8 | x8 | x8 | x8 | x8 | x8 | x8 | x8 | x8 | x8 | x8 | %56
 x8 | x8 | x8 | x8 | x8 | x8 | x8 | x8 | x8 | x8 | x8 | x8 | x8 | x8 | x8 | x8 | x8 | x8 | x8 | %75
 x8 | x8 | x8 | x8 | x8 | x8 | x8 | x8 | x8 |] %84

